public/svg/Peace Of Mind Icon.svg

<svg width="80" height="80" viewBox="0 0 80 80" fill="none" xmlns="http://www.w3.org/2000/svg">
<path d="M32.6602 64.09V70.74L50.2602 66.3701V62.5801C50.2602 59.3901 50.9602 56.2201 52.3202 53.3301L52.3402 53.28C52.3402 53.28 54.9502 48.76 55.9102 43.55" stroke="#007BFF" stroke-linecap="round" stroke-linejoin="round"/>
<path d="M24.3701 30.6399C22.2301 33.2799 20.8301 36.5299 20.4601 40.1099L16.5301 51.8699C16.3901 52.3099 16.7201 52.7699 17.1801 52.7699H21.8001V61.1699C21.8001 63.2399 23.5601 64.8599 25.6201 64.6899L32.6501 64.0799L36.3901 63.7599" stroke="#007BFF" stroke-linecap="round" stroke-linejoin="round"/>
<path d="M48.1098 26.6701C45.8098 25.3001 43.1998 24.3801 40.5098 24.0701" stroke="#007BFF" stroke-linecap="round" stroke-linejoin="round"/>
<path d="M59.9299 32.41C59.9299 32.41 59.9299 32.4 59.9299 32.39C59.9299 30.09 58.0699 28.23 55.7699 28.23C54.2499 28.23 52.9299 29.06 52.1999 30.28C51.6599 30.03 51.0699 29.88 50.4399 29.88C48.2399 29.88 46.4599 31.59 46.3099 33.75C44.7099 33.88 43.4399 35.21 43.4399 36.85C43.4399 38.58 44.8399 39.98 46.5699 39.98H59.7199C61.8099 39.98 63.5099 38.28 63.5099 36.19C63.5099 34.1 61.9299 32.54 59.9399 32.42L59.9299 32.41Z" stroke="#EDEDED" stroke-linecap="round" stroke-linejoin="round"/>
<path d="M36.6999 21.57C36.6999 21.57 36.6999 21.55 36.6999 21.54C36.6999 18.78 34.4599 16.54 31.6999 16.54C29.8699 16.54 28.2899 17.53 27.4199 19C26.7799 18.7 26.0599 18.51 25.2999 18.51C22.6599 18.51 20.5199 20.56 20.3399 23.16C18.4099 23.32 16.8999 24.92 16.8999 26.88C16.8999 28.95 18.5799 30.63 20.6499 30.63H36.4399C38.9499 30.63 40.9899 28.59 40.9899 26.08C40.9899 23.57 39.0899 21.69 36.6999 21.56V21.57Z" stroke="#EDEDED" stroke-linecap="round" stroke-linejoin="round"/>
<path d="M49.9002 10.25V9.27002M45.8902 11.91L45.1902 11.21M44.2302 15.92H43.2402M45.8902 19.93L45.1902 20.63M49.9002 21.6V22.58M53.9102 19.93L54.6102 20.63M55.5802 15.92H56.5602M53.9102 11.91L54.6102 11.21M53.5202 15.92C53.5202 17.9193 51.8995 19.54 49.9002 19.54C47.901 19.54 46.2802 17.9193 46.2802 15.92C46.2802 13.9207 47.901 12.3 49.9002 12.3C51.8995 12.3 53.5202 13.9207 53.5202 15.92Z" stroke="#EDEDED" stroke-linecap="round" stroke-linejoin="round"/>
<path d="M21.8101 57.49C22.1301 57.49 24.4301 57.71 26.2801 56.29" stroke="#007BFF" stroke-linecap="round" stroke-linejoin="round"/>
<path d="M27.4102 42.99C27.4102 42.99 28.1002 44.73 29.6302 44.73C31.6602 44.73 32.1102 42.99 32.1102 42.99" stroke="#007BFF" stroke-linecap="round" stroke-linejoin="round"/>
</svg>

<?xml version="1.0" encoding="UTF-8"?>
<svg id="Layer_1" data-name="Layer 1" xmlns="http://www.w3.org/2000/svg" viewBox="0 0 80 80">
  <defs>
    <style>
      .cls-1 {
        stroke: #ededed;
      }

      .cls-1, .cls-2 {
        fill: none;
        stroke-linecap: round;
        stroke-linejoin: round;
      }

      .cls-2 {
        stroke: #007bff;
      }
    </style>
  </defs>
  <path class="cls-2" d="m32.66,64.09v6.65l17.6-4.37v-3.79c0-3.19.7-6.36,2.06-9.25l.02-.05s2.61-4.52,3.57-9.73"/>
  <path class="cls-2" d="m24.37,30.64c-2.14,2.64-3.54,5.89-3.91,9.47l-3.93,11.76c-.14.44.19.9.65.9h4.62v8.4c0,2.07,1.76,3.69,3.82,3.52l7.03-.61,3.74-.32"/>
  <path class="cls-2" d="m48.11,26.67c-2.3-1.37-4.91-2.29-7.6-2.6"/>
  <path class="cls-1" d="m59.93,32.41s0-.01,0-.02c0-2.3-1.86-4.16-4.16-4.16-1.52,0-2.84.83-3.57,2.05-.54-.25-1.13-.4-1.76-.4-2.2,0-3.98,1.71-4.13,3.87-1.6.13-2.87,1.46-2.87,3.1,0,1.73,1.4,3.13,3.13,3.13h13.15c2.09,0,3.79-1.7,3.79-3.79s-1.58-3.65-3.57-3.77Z"/>
  <path class="cls-1" d="m36.7,21.57s0-.02,0-.03c0-2.76-2.24-5-5-5-1.83,0-3.41.99-4.28,2.46-.64-.3-1.36-.49-2.12-.49-2.64,0-4.78,2.05-4.96,4.65-1.93.16-3.44,1.76-3.44,3.72,0,2.07,1.68,3.75,3.75,3.75h15.79c2.51,0,4.55-2.04,4.55-4.55s-1.9-4.39-4.29-4.52Z"/>
  <g>
    <circle class="cls-1" cx="49.9" cy="15.92" r="3.62"/>
    <line class="cls-1" x1="49.9" y1="10.25" x2="49.9" y2="9.27"/>
    <line class="cls-1" x1="45.89" y1="11.91" x2="45.19" y2="11.21"/>
    <line class="cls-1" x1="44.23" y1="15.92" x2="43.24" y2="15.92"/>
    <line class="cls-1" x1="45.89" y1="19.93" x2="45.19" y2="20.63"/>
    <line class="cls-1" x1="49.9" y1="21.6" x2="49.9" y2="22.58"/>
    <line class="cls-1" x1="53.91" y1="19.93" x2="54.61" y2="20.63"/>
    <line class="cls-1" x1="55.58" y1="15.92" x2="56.56" y2="15.92"/>
    <line class="cls-1" x1="53.91" y1="11.91" x2="54.61" y2="11.21"/>
  </g>
  <path class="cls-2" d="m21.81,57.49c.32,0,2.62.22,4.47-1.2"/>
  <path class="cls-2" d="m27.41,42.99s.69,1.74,2.22,1.74c2.03,0,2.48-1.74,2.48-1.74"/>
</svg>
